SVG_Azure_All/Azure Cosmos DB Notification.svg

<?xml version="1.0" encoding="UTF-8" standalone="no"?>
<!-- Generated by Microsoft Visio, SVG Export Azure Cosmos DB Notification.svg Page-1 -->

<svg
   xmlns:dc="http://purl.org/dc/elements/1.1/"
   xmlns:cc="http://creativecommons.org/ns#"
   xmlns:rdf="http://www.w3.org/1999/02/22-rdf-syntax-ns#"
   xmlns:svg="http://www.w3.org/2000/svg"
   xmlns="http://www.w3.org/2000/svg"
   xmlns:sodipodi="http://sodipodi.sourceforge.net/DTD/sodipodi-0.dtd"
   xmlns:inkscape="http://www.inkscape.org/namespaces/inkscape"
   width="0.70860606in"
   height="0.78735554in"
   viewBox="0 0 51.019995 56.689736"
   xml:space="preserve"
   class="st4"
   version="1.1"
   id="svg37"
   sodipodi:docname="Azure Cosmos DB Notification.svg"
   style="font-size:12px;overflow:visible;color-interpolation-filters:sRGB;fill:none;fill-rule:evenodd;stroke-linecap:square;stroke-miterlimit:3"
   inkscape:version="0.92.5 (2060ec1f9f, 2020-04-08)"><metadata
   id="metadata43"><rdf:RDF><cc:Work
       rdf:about=""><dc:format>image/svg+xml</dc:format><dc:type
         rdf:resource="http://purl.org/dc/dcmitype/StillImage" /></cc:Work></rdf:RDF></metadata><defs
   id="defs41" /><sodipodi:namedview
   pagecolor="#ffffff"
   bordercolor="#666666"
   borderopacity="1"
   objecttolerance="10"
   gridtolerance="10"
   guidetolerance="10"
   inkscape:pageopacity="0"
   inkscape:pageshadow="2"
   inkscape:window-width="640"
   inkscape:window-height="480"
   id="namedview39"
   showgrid="false"
   inkscape:zoom="1.5231215"
   inkscape:cx="34.015763"
   inkscape:cy="32.119508"
   inkscape:window-x="0"
   inkscape:window-y="0"
   inkscape:window-maximized="0"
   inkscape:current-layer="svg37" />
	<style
   type="text/css"
   id="style2">
	<![CDATA[
		.st1 {fill:#59b4d9;stroke:none;stroke-linecap:butt;stroke-width:25.5}
		.st2 {fill:#ffffff;fill-opacity:0.8;stroke:none;stroke-linecap:butt;stroke-width:25.5}
		.st3 {fill:#804998;stroke:none;stroke-linecap:butt;stroke-width:25.5}
		.st4 {fill:none;fill-rule:evenodd;font-size:12px;overflow:visible;stroke-linecap:square;stroke-miterlimit:3}
	]]>
	</style>

	<g
   id="g35"
   transform="translate(-25.5,-25.504572)">
		<title
   id="title4">Page-1</title>
		<g
   id="group8285-1"
   transform="translate(25.5,-34.0157)">
			<title
   id="title6">Azure Cosmos DB Notification</title>
			<g
   id="group8286-2">
				<title
   id="title8"> E-Icons/COMMON24x24/Notificati</title>
				<g
   id="group8287-3">
					<title
   id="title10">Sheet.8287</title>
					<g
   id="shape8288-4">
						<title
   id="title12">Sheet.8288</title>
						<path
   d="M 48.7,67.23 43.14,61.78 40.82,59.52 H 0 v 56.69 H 51.02 V 69.49 Z"
   class="st1"
   id="path14"
   inkscape:connector-curvature="0"
   style="fill:#59b4d9;stroke:none;stroke-width:25.5;stroke-linecap:butt" />
					</g>
					<g
   id="shape8289-6"
   transform="translate(2.31926,-2.26772)">
						<title
   id="title17">Sheet.8289</title>
						<path
   d="M 38.27,64.05 H 0 v 52.16 H 46.39 V 71.99 h -8.12 z"
   class="st2"
   id="path19"
   inkscape:connector-curvature="0"
   style="fill:#ffffff;fill-opacity:0.8;stroke:none;stroke-width:25.5;stroke-linecap:butt" />
					</g>
					<g
   id="shape8290-8"
   transform="translate(9.85684,-10.9984)">
						<title
   id="title22">Sheet.8290</title>
						<path
   d="m 20.06,114.96 a 1.28848,1.25984 0 0 1 -1.27,1.25 H 1.28 A 1.28848,1.25984 0 0 1 0,114.96 1.28848,1.25984 0 0 1 1.28,113.71 h 17.51 a 1.28848,1.25984 0 0 1 1.27,1.25 z m 11.71,-8.5 A 1.28848,1.25984 0 0 1 30.5,107.7 H 1.28 A 1.28848,1.25984 0 0 1 0,106.46 1.28848,1.25984 0 0 1 1.28,105.21 h 29.1 c 0.81,0 1.39,0.57 1.39,1.25 z"
   class="st1"
   id="path24"
   inkscape:connector-curvature="0"
   style="fill:#59b4d9;stroke:none;stroke-width:25.5;stroke-linecap:butt" />
					</g>
					<g
   id="shape8291-10"
   transform="translate(14.4953,-27.4394)">
						<title
   id="title27">Sheet.8291</title>
						<path
   d="m 10.67,111.45 c 0.11,0 0.11,0 0.35,0.11 l 6.26,4.54 -2.44,-7.37 c 0,-0.12 0,-0.46 0.12,-0.57 l 6.26,-4.54 h -7.65 a 0.698998,0.683465 0 0 1 -0.579814,-0.45354 L 10.67,95.91 8.23,103.28 c 0,0.12 -0.34,0.46 -0.58,0.46 H 0 l 6.26,4.53 c 0.12,0.12 0.35,0.46 0.12,0.57 l -2.44,7.37 6.26,-4.54 c 0.12,-0.22 0.35,-0.22 0.47,-0.22 z"
   class="st3"
   id="path29"
   inkscape:connector-curvature="0"
   style="fill:#804998;stroke:none;stroke-width:25.5;stroke-linecap:butt" />
					</g>
				</g>
			</g>
		</g>
	</g>
</svg>

<?xml version="1.0" encoding="UTF-8" standalone="no"?>
<!DOCTYPE svg PUBLIC "-//W3C//DTD SVG 1.1//EN" "http://www.w3.org/Graphics/SVG/1.1/DTD/svg11.dtd">
<!-- Generated by Microsoft Visio, SVG Export Azure Cosmos DB Notification.svg Page-1 -->
<svg xmlns="http://www.w3.org/2000/svg" xmlns:xlink="http://www.w3.org/1999/xlink" xmlns:ev="http://www.w3.org/2001/xml-events"
		width="1.41699in" height="1.61401in" viewBox="0 0 102.024 116.209" xml:space="preserve" color-interpolation-filters="sRGB"
		class="st4">
	<style type="text/css">
	<![CDATA[
		.st1 {fill:#59b4d9;stroke:none;stroke-linecap:butt;stroke-width:25.5}
		.st2 {fill:#ffffff;fill-opacity:0.8;stroke:none;stroke-linecap:butt;stroke-width:25.5}
		.st3 {fill:#804998;stroke:none;stroke-linecap:butt;stroke-width:25.5}
		.st4 {fill:none;fill-rule:evenodd;font-size:12px;overflow:visible;stroke-linecap:square;stroke-miterlimit:3}
	]]>
	</style>

	<g>
		<title>Page-1</title>
		<g id="group8090-1" transform="translate(25.5,-34.0157)">
			<title>Azure Cosmos DB Notification</title>
			<g id="group8091-2">
				<title> E-Icons/COMMON24x24/Notificati</title>
				<g id="group8092-3">
					<title>Sheet.8092</title>
					<g id="shape8093-4">
						<title>Sheet.8093</title>
						<path d="M48.7 67.23 L43.14 61.78 L40.82 59.52 L0 59.52 L0 116.21 L51.02 116.21 L51.02 69.49 L48.7 67.23 Z"
								class="st1"/>
					</g>
					<g id="shape8094-6" transform="translate(2.31926,-2.26772)">
						<title>Sheet.8094</title>
						<path d="M38.27 64.05 L0 64.05 L0 116.21 L46.39 116.21 L46.39 71.99 L38.27 71.99 L38.27 64.05 Z"
								class="st2"/>
					</g>
					<g id="shape8095-8" transform="translate(9.85684,-10.9984)">
						<title>Sheet.8095</title>
						<path d="M20.06 114.96 A1.28848 1.25984 0 0 1 18.79 116.21 L1.28 116.21 A1.28848 1.25984 0 0 1 0 114.96 A1.28848
									 1.25984 0 0 1 1.28 113.71 L18.79 113.71 A1.28848 1.25984 0 0 1 20.06 114.96 ZM31.77 106.46 A1.28848
									 1.25984 0 0 1 30.5 107.7 L1.28 107.7 A1.28848 1.25984 0 0 1 0 106.46 A1.28848 1.25984 0 0 1
									 1.28 105.21 L30.38 105.21 C31.19 105.21 31.77 105.78 31.77 106.46 Z" class="st1"/>
					</g>
					<g id="shape8096-10" transform="translate(14.4953,-27.4394)">
						<title>Sheet.8096</title>
						<path d="M10.67 111.45 C10.78 111.45 10.78 111.45 11.02 111.56 L17.28 116.1 L14.84 108.73 C14.84 108.61 14.84
									 108.27 14.96 108.16 L21.22 103.62 L13.57 103.62 a0.698998 0.683465 0 0 1 -0.579814 -0.453543
									 L10.67 95.91 L8.23 103.28 C8.23 103.4 7.89 103.74 7.65 103.74 L0 103.74 L6.26 108.27 C6.38 108.39
									 6.61 108.73 6.38 108.84 L3.94 116.21 L10.2 111.67 C10.32 111.45 10.55 111.45 10.67 111.45 Z"
								class="st3"/>
					</g>
				</g>
			</g>
		</g>
	</g>
</svg>
